icons/fill-ele-office-doc-order-release-close-delete.svg

<svg xmlns="http://www.w3.org/2000/svg" width="32px" height="32px" viewBox="0 0 32 32" version="1.1">
    <title>fill-ele-office-doc-order-release-close-delete</title>
    <g id="fill-ele-office-doc-order-release-close-delete" stroke-width="1" fill-rule="evenodd">
        <path d="M9,4 L9,7 C9,7.55228475 9.44771525,8 10,8 L22,8 C22.5522847,8 23,7.55228475 23,7 L23,4 L27,4 C27.5522847,4 28,4.44771525 28,5 L28,29 C28,29.5522847 27.5522847,30 27,30 L5,30 C4.44771525,30 4,29.5522847 4,29 L4,5 C4,4.44771525 4.44771525,4 5,4 L9,4 Z M13.2071068,13.7928932 C12.8165825,13.4023689 12.1834175,13.4023689 11.7928932,13.7928932 C11.4023689,14.1834175 11.4023689,14.8165825 11.7928932,15.2071068 L14.585,18 L11.7928932,20.7928932 C11.4324093,21.1533772 11.4046797,21.7206082 11.7097046,22.1128994 L11.7928932,22.2071068 C12.1834175,22.5976311 12.8165825,22.5976311 13.2071068,22.2071068 L16,19.415 L18.7928932,22.2071068 C19.1533772,22.5675907 19.7206082,22.5953203 20.1128994,22.2902954 L20.2071068,22.2071068 C20.5976311,21.8165825 20.5976311,21.1834175 20.2071068,20.7928932 L17.415,18 L20.2071068,15.2071068 C20.5675907,14.8466228 20.5953203,14.2793918 20.2902954,13.8871006 L20.2071068,13.7928932 C19.8165825,13.4023689 19.1834175,13.4023689 18.7928932,13.7928932 L16,16.585 L13.2071068,13.7928932 Z M20,2 C20.5522847,2 21,2.44771525 21,3 L21,5 C21,5.55228475 20.5522847,6 20,6 L12,6 C11.4477153,6 11,5.55228475 11,5 L11,3 C11,2.44771525 11.4477153,2 12,2 L20,2 Z" id="&#24418;&#29366;" />
    </g>
</svg>

<svg xmlns="http://www.w3.org/2000/svg" viewBox="0 0 32 32"><path fill="currentColor" d="M9 4v3a1 1 0 0 0 1 1h12a1 1 0 0 0 1-1V4h4a1 1 0 0 1 1 1v24a1 1 0 0 1-1 1H5a1 1 0 0 1-1-1V5a1 1 0 0 1 1-1zm4.207 9.793a1 1 0 0 0-1.414 1.414L14.585 18l-2.792 2.793a1 1 0 0 0-.083 1.32l.083.094a1 1 0 0 0 1.414 0L16 19.415l2.793 2.792a1 1 0 0 0 1.32.083l.094-.083a1 1 0 0 0 0-1.414L17.415 18l2.792-2.793a1 1 0 0 0 .083-1.32l-.083-.094a1 1 0 0 0-1.414 0L16 16.585zM20 2a1 1 0 0 1 1 1v2a1 1 0 0 1-1 1h-8a1 1 0 0 1-1-1V3a1 1 0 0 1 1-1z"/></svg>
